X: 46
T: Pollonesse #46
M: 3/4
L: 1/16
K: A
Q:110
|e2(ae) (dcBA) a4|e2fe dcBA f4|e2(ec) d2(dB) c2(cA)|(cBAG) ABcd efga|
|e2(ae) (dcBA) a4|e2fe dcBA f4|e2(ec) d2(dB) c2(cA)|(cBAG) A4A,4:|
[E2B2][E2B2] [E2B2][E2B2] [E2B2][E2B2]|[E2B2][E2c2] [E2c2][E2c2] [E2c2][E2c2]|[E2c2][F2d2] [F2d2][F2d2] [F2d2][F2d2]|c3d e2fg agfe|
|f2e2 f2e2 d2c2|dcBA GABc defg|a2A2e4A,4:|
N: Noterad i D, men omskriven i A för att det låter bättre.

